_images/jupyterlite_badge_logo.svg

<svg width="97" height="20" xmlns="http://www.w3.org/2000/svg" xml:space="preserve" style="fill-rule:evenodd;clip-rule:evenodd;stroke-linejoin:round;stroke-miterlimit:2">
  <g transform="matrix(.09916 0 0 .06354 -1731 -605.52)">
    <path style="fill:none" d="M17457.1 9529.53h977.729v314.755H17457.1z"/>
    <clipPath id="a">
      <path d="M17457.1 9529.53h977.729v314.755H17457.1z"/>
    </clipPath>
    <g clip-path="url(#a)">
      <path d="M15802.4 10095h-341.9c-14.2 0-25.7 8.8-25.7 19.5v91c0 10.8 11.5 19.5 25.7 19.5h341.9v-130Z" style="fill:#555" transform="matrix(1.17985 0 0 2.42119 -753.592 -14912.4)"/>
      <path d="M15802.4 10095h-347.1c-11.3 0-20.5 8.8-20.5 19.5v91c0 10.8 9.2 19.5 20.5 19.5h347.1v-130Z" style="fill:#f7dc1e" transform="matrix(-1.48167 0 0 2.42119 41304.6 -14912.4)"/>
      <circle cx="316.432" cy="323.632" r="24.936" style="fill:#f7dc1e" transform="matrix(2.23899 0 0 3.4913 16870.5 8533.473)"/>
      <path d="M326.851 350.903a1.908 1.908 0 0 0-1.907-1.908h-17.55a1.908 1.908 0 0 0 0 3.817h17.55a1.908 1.908 0 0 0 1.907-1.909Zm-.023 5.055a1.948 1.948 0 0 0-1.946-1.948h-17.426a1.949 1.949 0 0 0 0 3.896h17.426a1.948 1.948 0 0 0 1.946-1.948Zm-4.535 5.074a1.928 1.928 0 0 0-1.926-1.928h-8.393a1.928 1.928 0 0 0 0 3.855h8.393a1.927 1.927 0 0 0 1.926-1.927Z" style="fill:#f9f9f9" transform="matrix(2.23899 0 0 3.4913 16870.5 8533.473)"/>
      <path d="M329.047 341.228c-2.51-.103-4.368-1.635-5.575-4.595-.897-2.228-1.345-4.956-1.345-8.186 0-.167.01-.381.03-.643.146-2.197.553-4.212 1.221-6.047 1.083-2.955 2.614-4.433 4.592-4.433.106 0 .215.005.329.015 1.801.114 2.702 1.159 2.702 3.137 0 2.159-.927 4.555-2.782 7.188-1.176 1.678-2.411 3.039-3.704 4.082.356 1.978.746 3.462 1.172 4.452.794 1.832 1.972 2.748 3.534 2.748.103 0 .213-.01.329-.031.342-.063.821-.312 1.436-.748.594-.408 1.058-.612 1.39-.612a.73.73 0 0 1 .424.143.971.971 0 0 1 .453.843c-.022.542-.408 1.099-1.156 1.671-.938.677-1.954 1.016-3.05 1.016Zm-1.058-21.545c-.618.01-1.159.274-1.625.793-1.19 1.346-1.841 4.155-1.954 8.428a19.693 19.693 0 0 0 1.874-2.252c1.729-2.366 2.593-4.362 2.593-5.987a.88.88 0 0 0-.064-.295c-.167-.458-.443-.687-.828-.687h.004Zm-6.754-3.496v.003a2.635 2.635 0 0 1-2.623 2.623 2.635 2.635 0 0 1-2.623-2.623v-.003a2.635 2.635 0 0 1 2.623-2.623 2.635 2.635 0 0 1 2.623 2.623Z" style="fill:#555;fill-rule:nonzero" transform="matrix(2.23899 0 0 3.4913 16860.197 8527.534)"/>
      <path d="M318.049 319.981c.678.01 1.027.451 1.047 1.323l-1.735 12.407c2.605-1.99 4.069-3.115 4.392-3.375.385-.332.781-.504 1.187-.514a.74.74 0 0 1 .423.14c.302.209.453.475.453.798-.012.501-.294.986-.846 1.455-1.53 1.29-3.555 2.877-6.077 4.762l-.718 5.173c-.031.24-.077.474-.14.703-.479 1.832-1.682 2.748-3.609 2.748-.958 0-1.802-.359-2.533-1.077-.718-.718-1.077-1.525-1.077-2.419 0-.94.225-1.711.673-2.313.249-.312.738-.741 1.466-1.285l3.749-2.812c1.323-8.737 2.001-13.33 2.034-13.779 0-.063.005-.12.015-.17.113-1.177.545-1.765 1.296-1.765Zm-4.108 20.918.265-1.904-1.735 1.326c-.751.562-1.131 1.094-1.141 1.595 0 .176.031.343.094.499.176.459.51.688 1.002.688.196 0 .372-.032.529-.095.501-.219.829-.922.982-2.109h.004Zm3.39-23.904c0-.186.047-.362.14-.529.219-.408.558-.612 1.017-.612.186 0 .367.047.544.14.398.219.597.553.597 1.001 0 .187-.048.37-.144.548-.216.396-.549.594-.997.594a1.13 1.13 0 0 1-.548-.144c-.406-.206-.609-.539-.609-.998Z" style="fill:#555;fill-rule:nonzero" transform="matrix(2.23899 0 0 3.4913 16860.197 8527.534)"/>
      <text x="-181.194" style="font-family:'Verdana',sans-serif;font-size:130.5px;fill:#010101;fill-opacity:.3" transform="matrix(.86262 0 0 1.3451 17841.546 9763.604)">try</text>
      <text x="-181.194" style="font-family:'Verdana',sans-serif;font-size:130.5px;fill:#fff" transform="matrix(.86262 0 0 1.3451 17841.546 9750.102)">try</text>
      <text x="-181.194" style="font-family:'Verdana',sans-serif;font-size:110px;fill:#010101;fill-opacity:.1" transform="matrix(1.0215 0 0 1.59285 18120.595 9765.69)">lite now</text>
      <text x="-181.194" style="font-family:'Verdana',sans-serif;font-size:110px;fill:#383838" transform="matrix(1.0215 0 0 1.59285 18120.595 9749.701)">lite now</text>
    </g>
  </g>
</svg>

<?xml version="1.0" encoding="UTF-8" standalone="no"?>
<!DOCTYPE svg PUBLIC "-//W3C//DTD SVG 1.1//EN" "http://www.w3.org/Graphics/SVG/1.1/DTD/svg11.dtd">
<svg width="91px" height="20px" version="1.1" xmlns="http://www.w3.org/2000/svg" xmlns:xlink="http://www.w3.org/1999/xlink" xml:space="preserve" xmlns:serif="http://www.serif.com/" style="fill-rule:evenodd;clip-rule:evenodd;stroke-linejoin:round;stroke-miterlimit:2;"><g transform="matrix(1,0,0,1,-17102,-9779)"><g id="lite-badge-launch" transform="matrix(0.0930728,0,0,0.0635416,15477.2,9173.48)"><rect x="17457.1" y="9529.53" width="977.729" height="314.755" style="fill:none;"/><clipPath id="_clip1"><rect x="17457.1" y="9529.53" width="977.729" height="314.755"/></clipPath><g clip-path="url(#_clip1)"><g transform="matrix(1.03361,0,0,1,-586.737,-1.01863e-10)"><g transform="matrix(2.43224,0,0,2.42119,-20084.1,-14912.4)"><path d="M15802.4,10095L15447.7,10095C15440.6,10095 15434.8,10103.8 15434.8,10114.5L15434.8,10205.5C15434.8,10216.3 15440.6,10225 15447.7,10225L15802.4,10225L15802.4,10095Z" style="fill:rgb(85,85,85);"/></g><g transform="matrix(-0.76361,0,0,2.42119,30189.2,-14912.4)"><path d="M15802.4,10095L15475.7,10095C15453.1,10095 15434.8,10103.8 15434.8,10114.5L15434.8,10205.5C15434.8,10216.3 15453.1,10225 15475.7,10225L15802.4,10225L15802.4,10095Z" style="fill:rgb(247,220,30);"/></g><g transform="matrix(2.74885,0,0,12.7513,10841.5,-10210.3)"><g transform="matrix(0.845162,0,0,0.273799,2185.28,1469.95)"><circle cx="316.432" cy="323.632" r="24.936" style="fill:rgb(247,220,30);"/></g><g transform="matrix(0.845162,0,0,0.273799,2185.28,1469.95)"><path d="M326.851,350.903C326.851,349.85 326.002,348.995 324.957,348.995L307.381,348.995C306.336,348.995 305.487,349.85 305.487,350.903C305.487,351.957 306.336,352.812 307.381,352.812L324.957,352.812C326.002,352.812 326.851,351.957 326.851,350.903Z" style="fill:rgb(249,249,249);"/></g><g transform="matrix(0.845162,0,0,0.273799,2185.28,1469.95)"><path d="M326.828,355.958C326.828,354.883 325.962,354.01 324.895,354.01L307.443,354.01C306.376,354.01 305.509,354.883 305.509,355.958C305.509,357.033 306.376,357.906 307.443,357.906L324.895,357.906C325.962,357.906 326.828,357.033 326.828,355.958Z" style="fill:rgb(249,249,249);"/></g><g transform="matrix(0.845162,0,0,0.273799,2185.28,1469.95)"><path d="M322.293,361.032C322.293,359.968 321.436,359.104 320.38,359.104L311.962,359.104C310.906,359.104 310.048,359.968 310.048,361.032C310.048,362.096 310.906,362.959 311.962,362.959L320.38,362.959C321.436,362.959 322.293,362.096 322.293,361.032Z" style="fill:rgb(249,249,249);"/></g><g transform="matrix(0.845162,0,0,0.273799,2425.45,1551.72)"><g transform="matrix(1,0,0,1,-288.772,-300.351)"><path d="M329.047,341.228C326.537,341.125 324.679,339.593 323.472,336.633C322.575,334.405 322.127,331.677 322.127,328.447C322.127,328.28 322.137,328.066 322.157,327.804C322.303,325.607 322.71,323.592 323.378,321.757C324.461,318.802 325.992,317.324 327.97,317.324C328.076,317.324 328.185,317.329 328.299,317.339C330.1,317.453 331.001,318.498 331.001,320.476C331.001,322.635 330.074,325.031 328.219,327.664C327.043,329.342 325.808,330.703 324.515,331.746C324.871,333.724 325.261,335.208 325.687,336.198C326.481,338.03 327.659,338.946 329.221,338.946C329.324,338.946 329.434,338.936 329.55,338.915C329.892,338.852 330.371,338.603 330.986,338.167C331.58,337.759 332.044,337.555 332.376,337.555C332.523,337.555 332.664,337.603 332.8,337.698C333.102,337.905 333.253,338.186 333.253,338.541C333.231,339.083 332.845,339.64 332.097,340.212C331.159,340.889 330.143,341.228 329.047,341.228ZM327.989,319.683C327.371,319.693 326.83,319.957 326.364,320.476C325.174,321.822 324.523,324.631 324.41,328.904C325.035,328.267 325.659,327.516 326.284,326.652C328.013,324.286 328.877,322.29 328.877,320.665C328.877,320.582 328.855,320.484 328.813,320.37C328.646,319.912 328.37,319.683 327.985,319.683L327.989,319.683Z" style="fill:rgb(85,85,85);fill-rule:nonzero;"/></g><g transform="matrix(1,0,0,1,-288.772,-300.351)"><path d="M321.235,316.187C321.235,316.188 321.235,316.189 321.235,316.19C321.235,317.629 320.051,318.813 318.612,318.813L318.612,318.813C317.173,318.813 315.989,317.629 315.989,316.19C315.989,316.189 315.989,316.188 315.989,316.187C315.989,314.748 317.173,313.564 318.612,313.564C320.051,313.564 321.235,314.748 321.235,316.187Z" style="fill:rgb(85,85,85);fill-rule:nonzero;"/></g><g transform="matrix(1,0,0,1,-288.772,-300.351)"><path d="M318.049,319.981C318.727,319.991 319.076,320.432 319.096,321.304L317.361,333.711C319.966,331.721 321.43,330.596 321.753,330.336C322.138,330.004 322.534,329.832 322.94,329.822C323.086,329.822 323.227,329.869 323.363,329.962C323.665,330.171 323.816,330.437 323.816,330.76C323.804,331.261 323.522,331.746 322.97,332.215C321.44,333.505 319.415,335.092 316.893,336.977L316.175,342.15C316.144,342.39 316.098,342.624 316.035,342.853C315.556,344.685 314.353,345.601 312.426,345.601C311.468,345.601 310.624,345.242 309.893,344.524C309.175,343.806 308.816,342.999 308.816,342.105C308.816,341.165 309.041,340.394 309.489,339.792C309.738,339.48 310.227,339.051 310.955,338.507L314.704,335.695C316.027,326.958 316.705,322.365 316.738,321.916C316.738,321.853 316.743,321.796 316.753,321.746C316.866,320.569 317.298,319.981 318.049,319.981ZM313.941,340.899L314.206,338.995L312.471,340.321C311.72,340.883 311.34,341.415 311.33,341.916C311.33,342.092 311.361,342.259 311.424,342.415C311.6,342.874 311.934,343.103 312.426,343.103C312.622,343.103 312.798,343.071 312.955,343.008C313.456,342.789 313.784,342.086 313.937,340.899L313.941,340.899ZM317.331,316.995C317.331,316.809 317.378,316.633 317.471,316.466C317.69,316.058 318.029,315.854 318.488,315.854C318.674,315.854 318.855,315.901 319.032,315.994C319.43,316.213 319.629,316.547 319.629,316.995C319.629,317.182 319.581,317.365 319.485,317.543C319.269,317.939 318.936,318.137 318.488,318.137C318.299,318.137 318.116,318.089 317.94,317.993C317.534,317.787 317.331,317.454 317.331,316.995Z" style="fill:rgb(85,85,85);fill-rule:nonzero;"/></g></g></g><g transform="matrix(3.03205,0,0,14.065,10159.7,-12659.1)"><g transform="matrix(0.295204,0,0,0.0956347,2538.31,1594.22)"><text x="-181.194px" y="0px" style="font-family:'Verdana', sans-serif;font-size:130.5px;fill:rgb(1,1,1);fill-opacity:0.3;">launch</text></g><g transform="matrix(0.295204,0,0,0.0956347,2538.31,1593.26)"><text x="-181.194px" y="0px" style="font-family:'Verdana', sans-serif;font-size:130.5px;fill:white;">launch</text></g></g><g transform="matrix(3.5905,0,0,16.6556,9244.95,-16787)"><g transform="matrix(0.295204,0,0,0.0956347,2538.31,1594.22)"><text x="-181.194px" y="0px" style="font-family:'Verdana', sans-serif;font-size:110px;fill:rgb(1,1,1);fill-opacity:0.1;">lite</text></g><g transform="matrix(0.295204,0,0,0.0956347,2538.31,1593.26)"><text x="-181.194px" y="0px" style="font-family:'Verdana', sans-serif;font-size:110px;fill:rgb(56,56,56);">lite</text></g></g></g></g></g></g></svg>
